!!!COM: Bach, Johann Sebastian
!!!OPR: Joh. Seb. Bachs vierstimmige Choralgesänge
!!!XEN: Four-part Chorales
!!!OTL: 5. Wär' Gott nicht mit uns diese Zeit
!!!SCT: BWV 257
!!!SCA: Thematisch-systematisches Verzeichnis der musikalischen Werke Johann Sebastian Bach: Bach-Werke-Verzeichnis (Schmieder)
!!!YOR: Bach Gesellschaft Edition xxxix
!!!ENC: Steven Rasmussen
!!!CDT: 1685/3//-1750/7/28/
!!!OCY: Deutschland
!!!YEC: Copyright (c) 1994, 2000 Center for Computer Assisted Research in the Humanities
!!!YEM: Rights to all derivative editions reserved
!!!YEN: United States of America
**kern	**kern	**kern	**kern	**silbe
*I:[BASSO]	*I:[TENORE]	*I:[ALTO]	*I:[SOPRANO]	*I:[SOPRANO]
*>[A,A,B]	*>[A,A,B]	*>[A,A,B]	*>[A,A,B,A,A,B,C]	*
*>A	*>A	*>A	*>A	*
*clefGv2	*clefGv2	*clefG2	*clefG2	*
*k[]	*k[]	*k[]	*k[]	*
*a:	*a:	*a:	*a:	*
*M4/4	*M4/4	*M4/4	*M4/4	*
4A	4e	4a	4cc	WÃ¤r'wÃ¤r'
=1	=1	=1	=1	=1
4E	8eL	4g	8ccL	GottGott
.	8dJ	.	8bJ	.
8FL	4c	4f	8aL	nichtnicht
8GJ	.	.	8bJ	.
8AL	8cL	8eL	8ccL	mitmit
8BJ	8BJ	8dJ	8ddJ	.
4c	8AL	4c	4ee	unsuns
.	8GJ	.	.	.
=2	=2	=2	=2	=2
4F	4A	8dL	4dd	die-die-
.	.	8eJ	.	.
4G	4B	4f	4dd	-se-se
4C;	4c;	4e;	4cc;	Zeit,Zeit,
4A	4c	4f#	4cc	sowir
=3	=3	=3	=3	=3
4G	4d	4g	4b	sollhÃ¤t-
4d	4d	8f#L	8aL	I--ten
.	.	8g#J	8bJ	.
8AL	4e	4a	4cc	-sra-musst
8GJ	.	.	.	.
8FL	4A	8aL	4dd	-elver-
8EJ	.	8gnJ	.	.
=4	=4	=4	=4	=4
4D	4A	4f	2b	sa--za-
4E	4G#	8eL	.	.
.	.	8dJ	.	.
4AA;	4A;	4c;	4a;	-gen:-gen,
*	*	*	*>B	*
=:|!	=:|!	=:|!	=:|!	=:|!
*>B	*>B	*>B	*>C	*
4BB	4Gn	4g	4dd	die
=5	=5	=5	=5	=5
8CL	4c	4g	4ee	so
8DJ	.	.	.	.
8EL	8GL	4g	4ee	ein
8FJ	8AJ	.	.	.
4G	4B	4.d	8bL	ar-
.	.	.	8ccJ	.
8F#L	8AL	.	4dd	-mes
8G#J	8BJ	8e	.	.
=6	=6	=6	=6	=6
8AL	8cL	8f#L	4cc	HÃ¤uf-
8BJ	8dJ	8g#J	.	.
8cL	4e	4a	4cc	-lein
8dJ	.	.	.	.
4e;	4e;	4g#;	4b;	sind,
8AL	4e	4a	4cc	ver-
8GJ	.	.	.	.
=7	=7	=7	=7	=7
8F#L	4d	8aL	4dd	-acht
8EJ	.	8gJ	.	.
4D	4d	4f#	8aL	vor
.	.	.	8bJ	.
8EL	8GL	4e	4cc	so
8F#J	8AJ	.	.	.
4G	4B	8dL	4b	viel
.	.	8eJ	.	.
=8	=8	=8	=8	=8
8AL	8cL	4f	4a	Men-
8GJ	8BJ	.	.	.
8AL	8cL	4f	4a	-schen-
8BJ	8dJ	.	.	.
4c;	4e;	4e;	4g;	-kind,
4F#	4e-	4a	4cc	die
=9	=9	=9	=9	=9
4G	4d	4g	4b	an
4F	4d	4a	8aL	uns
.	.	.	8bJ	.
8EL	4e	8g#L	4cc	se-
8CJ	.	8bJ	.	.
8FL	4A	8aL	8ddL	-tzen
8EJ	.	8gnJ	8ccJ	.
=10	=10	=10	=10	=10
8DL	4A	4f	2b	Al-
8BBJ	.	.	.	.
4E	4G#	8eL	.	.
.	.	8dJ	.	.
4AA;	4E;	4c#;	4a;	-le.
==|!	==|!	==|!	==|!	==|!
*-	*-	*-	*-	*-
!!!RWG: Key is interpreted using the Humdrum key tool.
!!!URL-pdf: https://s9.imslp.org/files/imglnks/usimg/6/6b/IMSLP24489-PMLP09471-CCARH_Bach_Chorales.pdf#page=3 Musedata edition
!!!URL-pdf: https://s9.imslp.org/files/imglnks/usimg/7/7a/IMSLP04155-Bach_-_BGA_253-438.pdf#page=4 	Bach-Gesellschaft Ausgabe, Band 39 (pp.175-276) Leipzig: Breitkopf und Härtel, 1892. Plate B.W. XXXIX.
!!!END: 1994/05/03
!!!EMD: Converted from MuseData to Humdrum Dec 19, 2000, by Andreas Kornstaedt using muse2kern.
!!!EED: Craig Stuart Sapp
!!!EEV: 2024/03/31
!!!ONB: Some non-unicode characters
!!!filter-keyboard: satb2gs
